X:336
T:Johnny Boyle's
R:jig
D:Altan: Blackwater
Z:id:hn-jig-336
M:6/8
K:G
DEG BAG|BdB BAG|c2e dBG|cBc AGE|
DEG BAG|BdB BAB|def gdB|1 cAF GFE:|2 cAF G2g||
|:~b3 ~g3|dgb bag|~a3 ~f3|dfa aga|
~b3 gag|dgb bag|~a3 ~f3|1 dfa g2a:|2 dfa g2f||
~e3 edB|edB gdB|edc BAG|cBc AGE|
DEG BAG|BdB BAB|def gdB|cAF GFE||

